assets/svg/1F52C.svg

<svg xmlns="http://www.w3.org/2000/svg" viewBox="0 0 64 64" enable-background="new 0 0 64 64"><path fill="#86a7ac" d="m34.05 17.889c0 0 25.08 3.686 13.163 40.43l-13.856 3.455c0 0 24.637-31.343-2.097-39.43l2.79-4.451"/><path fill="#63797b" d="m50.49 6.884c.681.816.772 1.929.211 2.495l-7.37 7.38c-.561.563-1.566.359-2.244-.455l-1.652-1.979c-.678-.811-.773-1.93-.211-2.49l7.371-7.382c.563-.563 1.568-.359 2.246.453l1.649 1.978"/><path fill="#9fbcbf" d="m48.833 10.964c1.4 1.677 1.594 3.979.436 5.143l-15.208 15.229c-1.16 1.162-3.235.743-4.637-.937l-3.404-4.082c-1.4-1.679-1.594-3.981-.436-5.145l15.21-15.229c1.158-1.162 3.233-.743 4.635.934l3.404 4.087"/><path fill="#86a7ac" d="m44.18 14.705c1.059 1.269.963 3.253-.213 4.429l-15.414 15.438c-1.175 1.176-2.989 1.103-4.045-.166l-2.572-3.084c-1.058-1.269-.961-3.25.214-4.429l15.414-15.438c1.176-1.175 2.986-1.103 4.046.166l2.57 3.084"/><path fill="#9fbcbf" d="m46.43.294c.474-.472 1.266-.363 1.771.245l6.642 7.963c.505.605.536 1.483.063 1.954l-1.145 1.148c-.474.474-1.266.363-1.771-.244l-6.642-7.965c-.505-.608-.536-1.481-.063-1.953l1.145-1.148"/><path fill="#63797b" d="m23.04 23.477c.47-.474 1.266-.363 1.77.246l6.642 7.963c.505.605.533 1.483.063 1.954l-1.146 1.149c-.474.472-1.265.361-1.77-.247l-6.642-7.962c-.508-.607-.536-1.485-.065-1.956l1.148-1.147"/><g fill="#57c6e9"><path d="m13.178 27.909c.605-.608 1.852-.193 2.787.923l12.221 14.661c.935 1.12 1.198 2.517.591 3.125l-1.473 1.477c-.606.605-1.852.193-2.785-.927l-12.226-14.658c-.93-1.119-1.196-2.519-.588-3.124l1.473-1.477"/><path d="m10.239 38.601c.377-.381 1.155-.121 1.739.577l7.631 9.152c.583.698.747 1.573.37 1.95l-.92.923c-.38.377-1.158.121-1.739-.577l-7.633-9.156c-.582-.695-.748-1.57-.367-1.95l.919-.919"/></g><ellipse fill="#63797b" cx="40.837" cy="54.14" rx="11.733" ry="9.464"/><path fill="#86a7ac" d="m58.58 59.29c0 2.602-1.573 4.713-3.518 4.713h-47.626c-1.943 0-3.517-2.111-3.517-4.713l0 0c0-2.604 1.573-4.713 3.517-4.713h47.626c1.945 0 3.518 2.11 3.518 4.713l0 0"/></svg>

<?xml version="1.0" encoding="UTF-8" standalone="no"?>
<!-- Generator: Adobe Illustrator 16.0.0, SVG Export Plug-In . SVG Version: 6.00 Build 0)  -->

<svg
   xmlns:dc="http://purl.org/dc/elements/1.1/"
   xmlns:cc="http://creativecommons.org/ns#"
   xmlns:rdf="http://www.w3.org/1999/02/22-rdf-syntax-ns#"
   xmlns:svg="http://www.w3.org/2000/svg"
   xmlns="http://www.w3.org/2000/svg"
   xmlns:sodipodi="http://sodipodi.sourceforge.net/DTD/sodipodi-0.dtd"
   xmlns:inkscape="http://www.inkscape.org/namespaces/inkscape"
   version="1.1"
   id="Layer_1"
   x="0px"
   y="0px"
   width="64px"
   height="64px"
   viewBox="0 0 64 64"
   enable-background="new 0 0 64 64"
   xml:space="preserve"
   inkscape:version="0.48.5 r10040"
   sodipodi:docname="1F52C.svg"
   inkscape:export-filename="D:\TESTINGEMOJI\SVGTEST\1F52C.png"
   inkscape:export-xdpi="90"
   inkscape:export-ydpi="90"><metadata
   id="metadata4053"><rdf:RDF><cc:Work
       rdf:about=""><dc:format>image/svg+xml</dc:format><dc:type
         rdf:resource="http://purl.org/dc/dcmitype/StillImage" /><dc:title></dc:title></cc:Work></rdf:RDF></metadata><defs
   id="defs4051" /><sodipodi:namedview
   pagecolor="#ffffff"
   bordercolor="#666666"
   borderopacity="1"
   objecttolerance="10"
   gridtolerance="10"
   guidetolerance="10"
   inkscape:pageopacity="0"
   inkscape:pageshadow="2"
   inkscape:window-width="640"
   inkscape:window-height="480"
   id="namedview4049"
   showgrid="false"
   inkscape:zoom="3.6875"
   inkscape:cx="32"
   inkscape:cy="32"
   inkscape:window-x="565"
   inkscape:window-y="231"
   inkscape:window-maximized="0"
   inkscape:current-layer="Layer_1" />
<g
   id="g4009">
	<path
   fill="#86A7AC"
   d="M34.045,17.889c0,0,25.081,3.686,13.163,40.426L33.352,61.77c0,0,24.637-31.343-2.097-39.43L34.045,17.889z   "
   id="path4011" />
</g>
<g
   id="g4013">
	<path
   fill="#63797B"
   d="M50.491,6.884c0.681,0.816,0.772,1.929,0.211,2.495l-7.37,7.38c-0.561,0.563-1.566,0.359-2.244-0.455   l-1.652-1.979c-0.678-0.811-0.773-1.93-0.211-2.49l7.371-7.382c0.563-0.563,1.568-0.359,2.246,0.453L50.491,6.884z"
   id="path4015" />
</g>
<g
   id="g4017">
	<path
   fill="#9FBCBF"
   d="M48.833,10.964c1.4,1.677,1.594,3.979,0.436,5.143L34.061,31.336c-1.16,1.162-3.235,0.743-4.637-0.937   l-3.404-4.082c-1.4-1.679-1.594-3.981-0.436-5.145l15.21-15.229c1.158-1.162,3.233-0.743,4.635,0.934L48.833,10.964z"
   id="path4019" />
</g>
<g
   id="g4021">
	<path
   fill="#86A7AC"
   d="M44.181,14.705c1.059,1.269,0.963,3.253-0.213,4.429L28.554,34.572c-1.175,1.176-2.989,1.103-4.045-0.166   l-2.572-3.084c-1.058-1.269-0.961-3.25,0.214-4.429l15.414-15.438c1.176-1.175,2.986-1.103,4.046,0.166L44.181,14.705z"
   id="path4023" />
</g>
<g
   id="g4025">
	<path
   fill="#9FBCBF"
   d="M46.434,0.294c0.474-0.472,1.266-0.363,1.771,0.245l6.642,7.963c0.505,0.605,0.536,1.483,0.063,1.954   l-1.145,1.148c-0.474,0.474-1.266,0.363-1.771-0.244l-6.642-7.965c-0.505-0.608-0.536-1.481-0.063-1.953L46.434,0.294z"
   id="path4027" />
</g>
<g
   id="g4029">
	<path
   fill="#63797B"
   d="M23.043,23.477c0.47-0.474,1.266-0.363,1.77,0.246l6.642,7.963c0.505,0.605,0.533,1.483,0.063,1.954   l-1.146,1.149c-0.474,0.472-1.265,0.361-1.77-0.247L21.96,26.58c-0.508-0.607-0.536-1.485-0.065-1.956L23.043,23.477z"
   id="path4031" />
</g>
<g
   id="g4033">
	<path
   fill="#57C6E9"
   d="M13.178,27.909c0.605-0.608,1.852-0.193,2.787,0.923l12.221,14.661c0.935,1.12,1.198,2.517,0.591,3.125   l-1.473,1.477c-0.606,0.605-1.852,0.193-2.785-0.927L12.293,32.51c-0.93-1.119-1.196-2.519-0.588-3.124L13.178,27.909z"
   id="path4035" />
</g>
<g
   id="g4037">
	<path
   fill="#57C6E9"
   d="M10.239,38.601c0.377-0.381,1.155-0.121,1.739,0.577l7.631,9.152c0.583,0.698,0.747,1.573,0.37,1.95   l-0.92,0.923c-0.38,0.377-1.158,0.121-1.739-0.577L9.687,41.47C9.105,40.775,8.939,39.9,9.32,39.52L10.239,38.601z"
   id="path4039" />
</g>
<g
   id="g4041">
	<ellipse
   fill="#63797B"
   cx="40.837"
   cy="54.142"
   rx="11.733"
   ry="9.464"
   id="ellipse4043" />
</g>
<g
   id="g4045">
	<path
   fill="#86A7AC"
   d="M58.583,59.287c0,2.602-1.573,4.713-3.518,4.713H7.439c-1.943,0-3.517-2.111-3.517-4.713l0,0   c0-2.604,1.573-4.713,3.517-4.713h47.626C57.01,54.574,58.583,56.684,58.583,59.287L58.583,59.287z"
   id="path4047" />
</g>
</svg>
